X:1
T: Tom Trainor's
C: J-53
M: 6/8
Z:
R: jig
% %staffwidth 12.5cm
K: E
"E"EGB EGB| EGB "B7"c2B| "E"EGB EGB| "D"=DFA B2A|
"E"EGB EGB| EGB "B7"c2a| "E"gbg Bcd|1 "E"e3 eBG:|2 "E"e3 "B7"efa|]
|:\
"E"gbg efg| "A"aga c3| "B7"fgf f2e| "B7"dBB c2B|
"E"gbg efg| "A"aga c3| "B7"f2e dBd|1 "E"e3 "B7"efa :|2 "E"e3 eBG|]
%
